assets/img/braze_icons/file-lock-02.svg

<svg fill="none" height="24" viewBox="0 0 24 24" width="24" xmlns="http://www.w3.org/2000/svg"><g clip-rule="evenodd" fill="#801ed7" fill-rule="evenodd"><path d="m8.7587 1h6.4826c.805-.000012 1.4693-.000021 2.0105.0442.5621.04592 1.0788.14448 1.5642.39178.7526.38349 1.3645.99541 1.748 1.74806.2473.48534.3459 1.00204.3918 1.56414.0442.54119.0442 1.20554.0442 2.0105v4.01422c0 .4726 0 .709-.0728.8287-.0748.1229-.1439.1765-.2815.2184-.1341.0409-.4103-.0299-.9628-.1715-.3782-.097-.7745-.1485-1.1829-.1485-2.4268 0-4.4285 1.8198-4.7149 4.1693-.5702.3792-1.0358.9-1.3491 1.5148-.3059.6004-.3836 1.1626-.4124 1.5149-.024.2938-.0237.6187-.0236.8482v.9057c-.0001.2295-.0004.5544.0236.8482.011.1343.0278.2678.0506.4001.0973.5636.146.8455.1.971-.0488.133-.0971.1904-.2199.2611-.1159.0667-.3452.0667-.804.0667h-2.39162c-.80496 0-1.46931 0-2.0105-.0442-.5621-.0459-1.0788-.1445-1.56414-.3918-.75265-.3835-1.36457-.9954-1.74806-1.748-.2473-.4854-.34586-1.0021-.39178-1.5642-.04422-.5412-.04421-1.2055-.0442-2.0105v-10.48261c-.00001-.80496-.00002-1.46933.0442-2.01051.04592-.5621.14448-1.0788.39178-1.56414.38349-.75265.99541-1.36457 1.74806-1.74806.48534-.2473 1.00204-.34586 1.56414-.39178.54118-.044221 1.20557-.044212 2.01052-.0442zm-1.7587 4c-.55228 0-1 .44772-1 1 0 .55229.44772 1 1 1h8c.5523 0 1-.44771 1-1 0-.55228-.4477-1-1-1zm-1 5c0-.55229.44772-1 1-1h5c.5523 0 1 .44771 1 1 0 .5523-.4477 1-1 1h-5c-.55228 0-1-.4477-1-1zm0 4c0-.5523.44772-1 1-1h3c.5523 0 1 .4477 1 1s-.4477 1-1 1h-3c-.55228 0-1-.4477-1-1z"/><path d="m15.75 16.25c0-1.5188 1.2312-2.75 2.75-2.75s2.75 1.2312 2.75 2.75v.778c.2025.024.4296.0736.658.19.3763.1917.6823.4977.874.874.1383.2714.1824.5412.2011.7698.017.2081.0169.4539.0169.7063v.8638c0 .2524.0001.4982-.0169.7063-.0187.2286-.0628.4984-.2011.7698-.1917.3763-.4977.6823-.874.874-.2714.1383-.5412.1824-.7698.2011-.2081.017-.4538.0169-.7062.0169h-3.8639c-.2523 0-.4982.0001-.7063-.0169-.2286-.0187-.4984-.0628-.7698-.2011-.3763-.1917-.6823-.4977-.874-.874-.1383-.2714-.1824-.5412-.201-.7698-.0171-.2081-.017-.4539-.017-.7063v-.8638c0-.2524-.0001-.4982.017-.7063.0186-.2286.0627-.4984.201-.7698.1917-.3763.4977-.6823.874-.874.2284-.1164.4555-.166.658-.19zm3.5 0v.75h-1.5v-.75c0-.4142.3358-.75.75-.75s.75.3358.75.75z"/></g></svg>

<svg width="24" height="24" viewBox="0 0 24 24" fill="none" xmlns="http://www.w3.org/2000/svg">
<path fill-rule="evenodd" clip-rule="evenodd" d="M8.7587 1H15.2413C16.0463 0.999988 16.7106 0.999979 17.2518 1.0442C17.8139 1.09012 18.3306 1.18868 18.816 1.43598C19.5686 1.81947 20.1805 2.43139 20.564 3.18404C20.8113 3.66938 20.9099 4.18608 20.9558 4.74818C21 5.28937 21 5.95372 21 6.75868V10.7729C21 11.2455 21 11.4819 20.9272 11.6016C20.8524 11.7245 20.7833 11.7781 20.6457 11.82C20.5116 11.8609 20.2354 11.7901 19.6829 11.6485C19.3047 11.5515 18.9084 11.5 18.5 11.5C16.0732 11.5 14.0715 13.3198 13.7851 15.6693C13.2149 16.0485 12.7493 16.5693 12.436 17.1841C12.1301 17.7845 12.0524 18.3467 12.0236 18.699C11.9996 18.9928 11.9999 19.3177 12 19.5472V20.4529C11.9999 20.6824 11.9996 21.0073 12.0236 21.3011C12.0346 21.4354 12.0514 21.5689 12.0742 21.7012C12.1715 22.2648 12.2202 22.5467 12.1742 22.6722C12.1254 22.8052 12.0771 22.8626 11.9543 22.9333C11.8384 23 11.6091 23 11.1503 23H8.75868C7.95372 23 7.28937 23 6.74818 22.9558C6.18608 22.9099 5.66938 22.8113 5.18404 22.564C4.43139 22.1805 3.81947 21.5686 3.43598 20.816C3.18868 20.3306 3.09012 19.8139 3.0442 19.2518C2.99998 18.7106 2.99999 18.0463 3 17.2413V6.75869C2.99999 5.95373 2.99998 5.28936 3.0442 4.74818C3.09012 4.18608 3.18868 3.66938 3.43598 3.18404C3.81947 2.43139 4.43139 1.81947 5.18404 1.43598C5.66938 1.18868 6.18608 1.09012 6.74818 1.0442C7.28936 0.999979 7.95375 0.999988 8.7587 1ZM7 5C6.44772 5 6 5.44772 6 6C6 6.55229 6.44772 7 7 7H15C15.5523 7 16 6.55229 16 6C16 5.44772 15.5523 5 15 5H7ZM6 10C6 9.44771 6.44772 9 7 9H12C12.5523 9 13 9.44771 13 10C13 10.5523 12.5523 11 12 11H7C6.44772 11 6 10.5523 6 10ZM6 14C6 13.4477 6.44772 13 7 13H10C10.5523 13 11 13.4477 11 14C11 14.5523 10.5523 15 10 15H7C6.44772 15 6 14.5523 6 14Z" fill="#801ED7"/>
<path fill-rule="evenodd" clip-rule="evenodd" d="M15.75 16.25C15.75 14.7312 16.9812 13.5 18.5 13.5C20.0188 13.5 21.25 14.7312 21.25 16.25V17.028C21.4525 17.052 21.6796 17.1016 21.908 17.218C22.2843 17.4097 22.5903 17.7157 22.782 18.092C22.9203 18.3634 22.9644 18.6332 22.9831 18.8618C23.0001 19.0699 23 19.3157 23 19.5681V20.4319C23 20.6843 23.0001 20.9301 22.9831 21.1382C22.9644 21.3668 22.9203 21.6366 22.782 21.908C22.5903 22.2843 22.2843 22.5903 21.908 22.782C21.6366 22.9203 21.3668 22.9644 21.1382 22.9831C20.9301 23.0001 20.6844 23 20.432 23H16.5681C16.3158 23 16.0699 23.0001 15.8618 22.9831C15.6332 22.9644 15.3634 22.9203 15.092 22.782C14.7157 22.5903 14.4097 22.2843 14.218 21.908C14.0797 21.6366 14.0356 21.3668 14.017 21.1382C13.9999 20.9301 14 20.6843 14 20.4319V19.5681C14 19.3157 13.9999 19.0699 14.017 18.8618C14.0356 18.6332 14.0797 18.3634 14.218 18.092C14.4097 17.7157 14.7157 17.4097 15.092 17.218C15.3204 17.1016 15.5475 17.052 15.75 17.028V16.25ZM19.25 16.25V17H17.75V16.25C17.75 15.8358 18.0858 15.5 18.5 15.5C18.9142 15.5 19.25 15.8358 19.25 16.25Z" fill="#801ED7"/>
</svg>
